packages/foundations/assets/icons/functional/images/medical/medical_cross_28.svg

<svg width="28" height="28" viewBox="0 0 28 28" fill="none" xmlns="http://www.w3.org/2000/svg">
<g clip-path="url(#clip0_186_226)">
<path fill-rule="evenodd" clip-rule="evenodd" d="M15.75 3.5C17.1997 3.5 18.375 4.67525 18.375 6.125V9.625H21.875C23.3247 9.625 24.5 10.8003 24.5 12.25V15.75C24.5 17.1997 23.3247 18.375 21.875 18.375H18.375V21.875C18.375 23.3247 17.1997 24.5 15.75 24.5H12.25C10.8003 24.5 9.625 23.3247 9.625 21.875V18.375H6.125C4.67525 18.375 3.5 17.1997 3.5 15.75V12.25C3.5 10.8003 4.67525 9.625 6.125 9.625H9.625V6.125C9.625 4.67525 10.8003 3.5 12.25 3.5H15.75ZM15.75 5.25H12.25C11.8013 5.25 11.4314 5.58779 11.3809 6.02296L11.375 6.125V11.375H6.125C5.67627 11.375 5.30643 11.7128 5.25589 12.148L5.25 12.25V15.75C5.25 16.1987 5.58779 16.5686 6.02296 16.6191L6.125 16.625H11.375V21.875C11.375 22.3237 11.7128 22.6936 12.148 22.7441L12.25 22.75H15.75C16.1987 22.75 16.5686 22.4122 16.6191 21.977L16.625 21.875V16.625H21.875C22.3237 16.625 22.6936 16.2872 22.7441 15.852L22.75 15.75V12.25C22.75 11.8013 22.4122 11.4314 21.977 11.3809L21.875 11.375H16.625V6.125C16.625 5.67627 16.2872 5.30643 15.852 5.25589L15.75 5.25Z" fill="#1A1C1F"/>
</g>
<defs>
<clipPath id="clip0_186_226">
<rect width="28" height="28" fill="white"/>
</clipPath>
</defs>
</svg>

<svg xmlns="http://www.w3.org/2000/svg" width="28" height="28" fill="none"><g clip-path="url(#a)"><path fill="#1A1C1F" fill-rule="evenodd" d="M15.75 3.5a2.625 2.625 0 0 1 2.625 2.625v3.5h3.5A2.625 2.625 0 0 1 24.5 12.25v3.5a2.625 2.625 0 0 1-2.625 2.625h-3.5v3.5A2.625 2.625 0 0 1 15.75 24.5h-3.5a2.625 2.625 0 0 1-2.625-2.625v-3.5h-3.5A2.625 2.625 0 0 1 3.5 15.75v-3.5a2.625 2.625 0 0 1 2.625-2.625h3.5v-3.5A2.625 2.625 0 0 1 12.25 3.5zm0 1.75h-3.5a.875.875 0 0 0-.87.773l-.005.102v5.25h-5.25a.875.875 0 0 0-.87.773l-.005.102v3.5c0 .449.338.819.773.87l.102.005h5.25v5.25c0 .449.338.819.773.87l.102.005h3.5a.875.875 0 0 0 .87-.773l.005-.102v-5.25h5.25a.875.875 0 0 0 .87-.773l.005-.102v-3.5a.875.875 0 0 0-.773-.87l-.102-.005h-5.25v-5.25a.875.875 0 0 0-.773-.87z" clip-rule="evenodd"/></g><defs><clipPath id="a"><path fill="#fff" d="M0 0h28v28H0z"/></clipPath></defs></svg>
